X: 3273
M: 6/8
L: 1/8
K: G
|:\
vg2vd dcB | edc BAG | g2d dcB | eag fba |\
g2d dcB | edc BAG | cec BdB | ABG FED :|
|:\


